packages/synapse-interface/assets/icons/op.svg

<svg fill="none" height="48" viewBox="0 0 48 48" width="48" xmlns="http://www.w3.org/2000/svg"><path d="m24 48c13.2548 0 24-10.7452 24-24s-10.7452-24-24-24-24 10.7452-24 24 10.7452 24 24 24z" fill="#ff0420"/><g fill="#fff"><path d="m16.9971 30.3647c-1.2487.0533-2.4809-.3006-3.5111-1.0084-.445-.3399-.8006-.7831-1.0358-1.2913-.2353-.5082-.3432-1.066-.3145-1.6253.0055-.3258.0356-.6508.0901-.9722.1561-.8655.3781-1.9038.6661-3.1149.8163-3.3009 2.9228-4.9514 6.3195-4.9514.8514-.014 1.6967.1453 2.4846.4682.6994.2741 1.3011.7505 1.7284 1.3684.4308.6366.651 1.3924.6295 2.1608-.0062.3198-.0363.6387-.0901.954-.1802 1.0684-.3962 2.1067-.648 3.1149-.4197 1.6444-1.1459 2.8747-2.1785 3.6909-1.0316.8042-2.4117 1.2063-4.1402 1.2063zm.2522-2.5928c.6236.0173 1.232-.194 1.7107-.5941.529-.4798.8889-1.1176 1.0261-1.8185.2762-1.1278.486-2.1121.6295-2.9528.0483-.2552.0724-.5145.072-.7742 0-1.0925-.5701-1.6386-1.7103-1.6383-.6287-.0151-1.2419.1957-1.7284.5941-.5193.4848-.8722 1.1212-1.0084 1.8184-.2161.8042-.4321 1.7885-.648 2.9528-.0489.2491-.073.5024-.072.7562 0 1.1043.5763 1.6564 1.7288 1.6564z"/><path d="m24.8833 30.1849c-.0572.0033-.1144-.0063-.1674-.0281s-.1004-.0552-.1387-.0978c-.0599-.0968-.0793-.2133-.0539-.3242l2.4846-11.7034c.022-.1291.0923-.245.1967-.3242.0965-.0796.2172-.124.3423-.1259h4.7894c1.1275-.0553 2.2453.2335 3.2049.8282.3946.2585.715.6152.9297 1.0352.2147.4199.3163.8886.2947 1.3597-.0017.3152-.038.6292-.1082.9364-.1985 1.2131-.848 2.3064-1.8185 3.061-.9002.6602-2.1365.9903-3.7089.9903h-2.4303l-.8282 3.9431c-.0221.1291-.0924.245-.1967.3242-.0964.0795-.217.1239-.342.1259zm6.3737-6.8782c.4718.0104.9338-.1351 1.3145-.4139.3917-.2876.6615-.7115.7562-1.1882.0335-.1782.0515-.3589.0539-.5402.0103-.1464-.0118-.2933-.0647-.4303-.0529-.1369-.1353-.2605-.2414-.3621-.3004-.2219-.6724-.3245-1.0442-.288h-2.1604l-.6841 3.2227z"/></g></svg>

<svg width="48" height="48" viewBox="0 0 48 48" fill="none" xmlns="http://www.w3.org/2000/svg">
<path d="M24 48C37.2548 48 48 37.2548 48 24C48 10.7452 37.2548 0 24 0C10.7452 0 0 10.7452 0 24C0 37.2548 10.7452 48 24 48Z" fill="#FF0420"/>
<path d="M16.9971 30.3647C15.7484 30.418 14.5162 30.0641 13.486 29.3563C13.041 29.0164 12.6854 28.5732 12.4502 28.065C12.2149 27.5568 12.107 26.999 12.1357 26.4397C12.1412 26.1139 12.1713 25.7889 12.2258 25.4675C12.3819 24.602 12.6039 23.5637 12.8919 22.3526C13.7082 19.0517 15.8147 17.4012 19.2114 17.4012C20.0628 17.3872 20.9081 17.5465 21.696 17.8694C22.3954 18.1435 22.9971 18.6199 23.4244 19.2378C23.8552 19.8744 24.0754 20.6302 24.0539 21.3986C24.0477 21.7184 24.0176 22.0373 23.9638 22.3526C23.7836 23.421 23.5676 24.4593 23.3158 25.4675C22.8961 27.1119 22.1699 28.3422 21.1373 29.1584C20.1057 29.9626 18.7256 30.3647 16.9971 30.3647ZM17.2493 27.7719C17.8729 27.7892 18.4813 27.5779 18.96 27.1778C19.489 26.698 19.8489 26.0602 19.9861 25.3593C20.2623 24.2315 20.4721 23.2472 20.6156 22.4065C20.6639 22.1513 20.688 21.892 20.6876 21.6323C20.6876 20.5398 20.1175 19.9937 18.9773 19.994C18.3486 19.9789 17.7354 20.1897 17.2489 20.5881C16.7296 21.0729 16.3767 21.7093 16.2405 22.4065C16.0244 23.2107 15.8084 24.195 15.5925 25.3593C15.5436 25.6084 15.5195 25.8617 15.5205 26.1155C15.5205 27.2198 16.0968 27.7719 17.2493 27.7719Z" fill="white"/>
<path d="M24.8833 30.1849C24.8261 30.1882 24.7689 30.1786 24.7159 30.1568C24.6629 30.135 24.6155 30.1016 24.5772 30.059C24.5173 29.9622 24.4979 29.8457 24.5233 29.7348L27.0079 18.0314C27.0299 17.9023 27.1002 17.7864 27.2046 17.7072C27.3011 17.6276 27.4218 17.5832 27.5469 17.5813H32.3363C33.4638 17.526 34.5816 17.8148 35.5412 18.4095C35.9358 18.668 36.2562 19.0247 36.4709 19.4447C36.6856 19.8646 36.7872 20.3333 36.7656 20.8044C36.7639 21.1196 36.7276 21.4336 36.6574 21.7408C36.4589 22.9539 35.8094 24.0472 34.8389 24.8018C33.9387 25.462 32.7024 25.7921 31.13 25.7921H28.6997L27.8715 29.7352C27.8494 29.8643 27.7791 29.9802 27.6748 30.0594C27.5784 30.1389 27.4578 30.1833 27.3328 30.1853L24.8833 30.1849ZM31.257 23.3067C31.7288 23.3171 32.1908 23.1716 32.5715 22.8928C32.9632 22.6052 33.233 22.1813 33.3277 21.7046C33.3612 21.5264 33.3792 21.3457 33.3816 21.1644C33.3919 21.018 33.3698 20.8711 33.3169 20.7341C33.264 20.5972 33.1816 20.4736 33.0755 20.372C32.7751 20.1501 32.4031 20.0475 32.0313 20.084H29.8709L29.1868 23.3067H31.257Z" fill="white"/>
</svg>
